X:213
T:New Scotch Sett No.3. Le4.213
M:6/8
L:1/8
Q:3/8=90
N:* Rest inserted by transcriber
B:L.Leadley MS#4 c1850
Z:Village Music Project 2016 Steve Mansfield
K:Am
A | d>ed f>ed | gBB B2d | A>BA dAf | ^d3 e2A |
d>ed f>ed | gBB B2d | Adf agc | e2d || "*" z2
A | d>ed f>ed | gBB B2d | A>BA dAf | ^d3 z2e{A} |
(fe)d (dc)B | A^Ge e2e | aec fe^G | A3 A2A ||
Bc^d efg | ABc d2A/F/ | EGB ege | dcc c2A |
dAA eAA | fed cBd | Acf a2c | ed !>!z a3 ||
fdz !>!d3 | cBz B3!>! | Adf a2c | edz!>! a3 |
fdz !>!d3 | cBz B3!>! | Gdf a2c | edz z3 !D.C.! |]

